X:1
T:Title
%%score { 1 | 2 }
L:1/8
M:4/4
K:Bb
V:1 bass nm="Grand Piano"
V:2 bass 
V:1
 z4 z2[Q:1/4=112] [F,B,D]>[F,CE] | [B,DF]2 [F,B,D]2 [B,DG]2 [F,B,D]2 | %2
 [B,DF]2 [B,DF]4[K:bass] [F,B,D]>[F,CE] | [DF]2 [DB]2 [DA]2 [DG]2 | [EA]6 c>B | A2 _A2 G2 ^F2 | %6
 F2 F4 A>B | c2 =B2 c2 _d2 | [Dd]6 [B,D]>[CE] | [DF]2 [B,D]2 [DG]2 [B,D]2 | [DF]2 [DF]4 [DB]>[Ec] | %11
 d2 c2 =B2 G2 | [CGc]6 [CG]>[CGA] | [_DGB]2 [DGB]2 [DGA]2 [DGB]2 | f2 d4 e>d | d2 c2 A2 F2 | %16
[M:3/4] [DB]6 |[M:1/4] d>e |[M:4/4] f2 B2 e2 d2 | [=EG]2 [Ec]4 [E=B]>[Ec] | d2 c2 F2 e2 | %21
 d6 [DF]>[DF] | [EG]2 [^FA]2 B2 c2 | d2 e2 f2 [Ge]2 | [Ge]2 [Fd][Ge] [Fd]2 [Ec]2 |[M:3/4] [DB]6 |] %26
V:2
 z4 z2 B,,>B,, | B,,2 B,,2 B,,2 B,,2 | B,,2 B,,4 B,,>B,, | [B,,B,]2 [B,,B,]2 [B,,F,]2 [B,,F,]2 | %4
 [C,F,]6 [F,A,E]>[F,B,E] | [F,CE]2 [^F,CE]2 [G,CE]2 [_A,CE]2 | [A,CE]2 [A,CE]4 [F,CE]>[F,G,E] | %7
 [F,A,E]2 [F,_A,D]2 [F,=A,E]2 [F,A,E]2 | [B,,B,]6 [B,,F,]>[B,,F,] | %9
 [B,,B,]2 [B,,F,]2 [B,,B,]2 [B,,F,]2 | [B,,B,]2 [B,,B,]4 [B,,B,]>[B,,B,] | %11
 [B,F]2 [_A,DF]2 [G,DF]2[K:bass] [F,=B,]2 | E,6 E,>E, | =E,2 E,2 E,2 E,2 | %14
 [F,DF]2 [F,B,F]4 [F,CF]>[F,B,F] | [F,A,E]2 [F,A,E]2 [F,CE]2 [F,A,E]2 |[M:3/4] [B,,B,]6 | %17
[M:1/4][K:treble] [B,F]>[B,CF] |[M:4/4] [B,DF]2 [B,DF]2 [G,=B,G]2 [G,B,F]2 | %19
 [C,B,]2 [C,B,]4 [C,B,]>[C,B,] | [F,A,E]2 [F,A,E]2 [F,A,E]2[K:treble] [A,CF]2 | %21
 [B,F]6[K:bass] [B,,B,]>[B,,B,] | [E,B,]2 [D,D]2[K:treble] [G,DG]2 [F,A,F]2 | %23
 [B,F]2 [B,CF]2 [B,DF]2[K:bass] [E,B,]2 | [F,B,]2 [F,B,][F,B,] [F,B,]2 [F,A,]2 |[M:3/4] [B,,B,]6 |] %26

